X:64
T: Jiemei jian mianhua
N: C1562
O: China, Liaoning, Yingkou
S: III, 288]
R: Xiaodiao. Fun shenghuo]
M: 2/4
L: 1/32
K: C
g4g2e2d4d4 | g4A2c2d4d4
g4g2e2g2e2g2a2 | e6d2c4A4 | A3cd2d2c4A4 | G4F4G8
A2c2G4A4A4 | g4e4d4d4
A2c2d4g4A4 | G4F4G8
A4A2e2d8 | A4A2e2d8
E4G4E4E2c2 | A6G2F4D4 | z4A4G4F4 | G2A2D8C4 | D16

